Dominus_Funeral/22/apps/wine-uninstaller.svg

<svg xmlns="http://www.w3.org/2000/svg" width="24" height="24"><path d="M4.284 2.472c.425 0 .85.168 1.184.492l6.535 6.635 6.556-6.646c.648-.67 1.71-.67 2.38 0 .636.67.636 1.742 0 2.412L14.381 12l6.556 6.646c.637.67.637 1.754 0 2.413a1.67 1.67 0 0 1-1.206.491 1.62 1.62 0 0 1-1.184-.491l-6.545-6.646-6.557 6.646a1.579 1.579 0 0 1-1.173.491c-.447 0-.86-.156-1.195-.491a1.72 1.72 0 0 1 0-2.413l6.557-6.635-6.557-6.646a1.72 1.72 0 0 1 0-2.401c.335-.335.76-.492 1.195-.492z" fill="#1a1a1a"/></svg>

<?xml version="1.0" encoding="UTF-8" standalone="no"?>
<svg
   xmlns:dc="http://purl.org/dc/elements/1.1/"
   xmlns:cc="http://creativecommons.org/ns#"
   xmlns:rdf="http://www.w3.org/1999/02/22-rdf-syntax-ns#"
   xmlns:svg="http://www.w3.org/2000/svg"
   xmlns="http://www.w3.org/2000/svg"
   xmlns:sodipodi="http://sodipodi.sourceforge.net/DTD/sodipodi-0.dtd"
   xmlns:inkscape="http://www.inkscape.org/namespaces/inkscape"
   width="24"
   height="24"
   version="1.1"
   id="svg4"
   sodipodi:docname="wine-uninstaller.svg"
   inkscape:version="0.92.4 (5da689c313, 2019-01-14)">
  <metadata
     id="metadata10">
    <rdf:RDF>
      <cc:Work
         rdf:about="">
        <dc:format>image/svg+xml</dc:format>
        <dc:type
           rdf:resource="http://purl.org/dc/dcmitype/StillImage" />
        <dc:title></dc:title>
      </cc:Work>
    </rdf:RDF>
  </metadata>
  <defs
     id="defs8" />
  <sodipodi:namedview
     pagecolor="#ffffff"
     bordercolor="#666666"
     borderopacity="1"
     objecttolerance="10"
     gridtolerance="10"
     guidetolerance="10"
     inkscape:pageopacity="0"
     inkscape:pageshadow="2"
     inkscape:window-width="1138"
     inkscape:window-height="480"
     id="namedview6"
     showgrid="false"
     inkscape:zoom="9.8333333"
     inkscape:cx="1.0677966"
     inkscape:cy="12"
     inkscape:window-x="0"
     inkscape:window-y="25"
     inkscape:window-maximized="0"
     inkscape:current-layer="svg4" />
  <path
     d="m 4.284,2.472 c 0.425,0 0.85,0.168 1.184,0.492 l 6.535,6.635 6.556,-6.646 c 0.648,-0.67 1.71,-0.67 2.38,0 0.636,0.67 0.636,1.742 0,2.412 L 14.381,12 l 6.556,6.646 c 0.637,0.67 0.637,1.754 0,2.413 A 1.67,1.67 0 0 1 19.731,21.55 1.62,1.62 0 0 1 18.547,21.059 L 12.002,14.413 5.445,21.059 A 1.579,1.579 0 0 1 4.272,21.55 c -0.447,0 -0.86,-0.156 -1.195,-0.491 a 1.72,1.72 0 0 1 0,-2.413 L 9.634,12.011 3.077,5.365 a 1.72,1.72 0 0 1 0,-2.401 C 3.412,2.629 3.837,2.472 4.272,2.472 Z"
     id="path2"
     inkscape:connector-curvature="0"
     style="fill:#1a1a1a" />
</svg>
